X:1
T:Brave Daniel
T:Brave Daniel
T:Thomas C. Neal
T:Thomas C. Neal, 1899
T:Public Domain Courtesy of the Cyber Hymnal™
C:Thomas C. Neal
Z:Public Domain
Z:Courtesy of the Cyber Hymnal™
%%score ( 1 2 ) ( 3 4 )
L:1/8
Q:1/4=108
M:6/8
K:D
V:1 treble 
V:2 treble 
V:3 bass 
V:4 bass 
V:1
 [DF]2 [DF] (F^E)[DF] | [CB]2 [CA] [CA]3 | [CG]2 [CG] (GF)[CE] | [DF]3- [DF]2 z | %4
w: 1.~With the win- * dow|o- pen wide,|And the foe * so|near, *|
w: 2.~Hark! the voice * of|prayer and praise,|Full of joy * and|peace; *|
w: 3.~In the li- * on’s|den, be- hold,|Dan- iel sweet- * ly|sleeps; *|
w: 4.~God is watch- * ing|o’er His own,|With all- see- * ing|eye; *|
 [DF]2 [DF] (F^E)[DF] | [CB]2 [CA] [CA]3 | [CG]2 [CG] (GF)[CE] | D3- D2 z ||"^Refrain" A3 F A2 | %9
w: Da- niel bows * be-|fore his God,|With- out doubt * or|fear. *||
w: King’s de- cree * and|li- on’s den|Can- not make * it|cease! *|Brave Dan- iel!|
w: While the guard- * ian|an- gel there,|Ho- ly vi- * gil|keeps. *||
w: Vain- ly foes * a-|gainst them rage;|They but rage— * and|die. *||
 [GB]3 [^GB] [Gd]2 | [=Gc]2 [GB] [EG]2 [GB] | [FA]3- [FA]2 z | D2 F A2 d | %13
w: ||||
w: brave Dan- iel!|Ev- er good and|true; *|If, like him, to|
w: ||||
w: ||||
 [Gc]2 [GB] [GB][Gd][GB] | [GA]2 [GA] [GB]2 [Gc] | [Fd]3- [Fd]2 z |] %16
w: |||
w: God we’re faith- ful, He’ll|bring us safe- ly|through. *|
w: |||
w: |||
V:2
 x3 D2 x | x6 | x3 C2 x | x6 | x3 D2 x | x6 | x3 C2 x | D3- D2 x || A3 F A2 | x6 | x6 | x6 | %12
 D2 F A2 d | x6 | x6 | x6 |] %16
V:3
 [D,A,]2 [D,A,] (A,^G,)[D,A,] | [E,A,]2 [E,A,] [A,,A,]3 | [A,,A,]2 [A,,A,] [A,,A,]2 [A,,A,] | %3
 [D,A,]3- [D,A,]2 z | [D,A,]2 [D,A,] (A,^G,)[D,A,] | [E,A,]2 [E,A,] [A,,A,]3 | %6
 [A,,A,]2 [A,,A,] [A,,A,]2 [A,,A,] | [D,F,]3- [D,F,]2 z || A,3 F, A,2 | [G,D]3 [E,E] [E,E]2 | %10
 [A,E]2 [A,E] [A,,A,]2 [A,,A,] | [D,A,]3- [D,A,]2 z | D,2 F, A,2 D | %13
 [G,D]2 [G,D] [G,D][G,B,][G,D] | [A,C]2 [A,C] [A,,A,]2 [A,,A,] | [D,A,]3- [D,A,]2 z |] %16
V:4
 x3 D,2 x | x6 | x6 | x6 | x3 D,2 x | x6 | x6 | x6 || A,3 F, A,2 | x6 | x6 | x6 | D,2 F, A,2 D | %13
 x6 | x6 | x6 |] %16

